dist/img/svg/torque.svg

<svg width="21" height="20" viewBox="0 0 21 20" fill="none" xmlns="http://www.w3.org/2000/svg">
<path d="M19 8.10547L17.3984 7.75391C17.2812 7.3763 17.125 6.99219 16.9297 6.60156L17.7891 5.15625C17.9062 4.97396 17.9909 4.78516 18.043 4.58984C18.1081 4.38151 18.1211 4.16667 18.082 3.94531C18.043 3.72396 17.9453 3.53516 17.7891 3.37891L16.9102 2.5C16.793 2.38281 16.6497 2.29818 16.4805 2.24609C16.3242 2.18099 16.1615 2.15495 15.9922 2.16797C15.8359 2.16797 15.6797 2.19401 15.5234 2.24609C15.3672 2.29818 15.224 2.36328 15.0938 2.44141L13.6875 3.33984C13.6354 3.3138 13.5833 3.28776 13.5312 3.26172C13.4792 3.23568 13.4271 3.20964 13.375 3.18359C13.3229 3.15755 13.2708 3.13802 13.2188 3.125C13.1667 3.09896 13.1081 3.07292 13.043 3.04688C12.9909 3.02083 12.9388 3.0013 12.8867 2.98828C12.8346 2.96224 12.776 2.94271 12.7109 2.92969C12.6589 2.90365 12.6068 2.88411 12.5547 2.87109L12.2031 1.23047C12.138 0.917969 11.9818 0.638021 11.7344 0.390625C11.487 0.130208 11.2005 0 10.875 0H9.625C9.29948 0 9.02604 0.123698 8.80469 0.371094C8.59635 0.61849 8.45312 0.911458 8.375 1.25L7.96484 2.85156C7.75651 2.91667 7.54818 2.99479 7.33984 3.08594C7.14453 3.16406 6.94922 3.25521 6.75391 3.35938L5.30859 2.44141C5.13932 2.32422 4.94401 2.24609 4.72266 2.20703C4.51432 2.15495 4.29948 2.15495 4.07812 2.20703C3.85677 2.24609 3.66797 2.34375 3.51172 2.5L2.61328 3.37891C2.39193 3.66536 2.28776 3.95833 2.30078 4.25781C2.32682 4.55729 2.43099 4.85677 2.61328 5.15625L3.53125 6.67969C3.34896 7.05729 3.20573 7.41536 3.10156 7.75391L1.5 8.10547C1.17448 8.17057 0.88151 8.32682 0.621094 8.57422C0.373698 8.80859 0.25 9.09505 0.25 9.43359V10.6836C0.25 10.9961 0.373698 11.263 0.621094 11.4844C0.86849 11.7057 1.16146 11.8555 1.5 11.9336L3.12109 12.3242C3.22526 12.6497 3.36198 12.9818 3.53125 13.3203L2.61328 14.8438C2.43099 15.1432 2.32682 15.4427 2.30078 15.7422C2.28776 16.0417 2.39193 16.3346 2.61328 16.6211L3.51172 17.5C3.77214 17.7344 4.07161 17.8516 4.41016 17.8516C4.7487 17.8385 5.04818 17.7409 5.30859 17.5586L6.75391 16.6406C6.83203 16.6797 6.91016 16.7188 6.98828 16.7578C7.06641 16.7969 7.14453 16.8359 7.22266 16.875C7.3138 16.901 7.39844 16.9336 7.47656 16.9727C7.56771 16.9987 7.65234 17.0312 7.73047 17.0703C7.82161 17.0964 7.90625 17.1224 7.98438 17.1484L8.375 18.75C8.45312 19.0885 8.60286 19.3815 8.82422 19.6289C9.04557 19.8763 9.3125 20 9.625 20H10.875C11.0964 20 11.3047 19.9349 11.5 19.8047C11.6953 19.6875 11.8516 19.5312 11.9688 19.3359C12.0859 19.1536 12.1641 18.9583 12.2031 18.75L12.5547 17.1289C12.9453 17.0117 13.3229 16.8555 13.6875 16.6602L15.0938 17.5586C15.3672 17.7409 15.6732 17.8385 16.0117 17.8516C16.3503 17.8516 16.6497 17.7344 16.9102 17.5L17.7891 16.6211C18.0104 16.3346 18.1081 16.0417 18.082 15.7422C18.069 15.4427 17.9714 15.1432 17.7891 14.8438L16.9297 13.3984C17.112 13.0469 17.2617 12.6888 17.3789 12.3242L19 11.9336C19.3385 11.8555 19.6315 11.7057 19.8789 11.4844C20.1263 11.263 20.25 10.9961 20.25 10.6836V9.43359C20.25 8.92578 19.9831 8.53516 19.4492 8.26172C19.306 8.18359 19.1562 8.13151 19 8.10547ZM19 10.5859C18.987 10.599 18.9674 10.612 18.9414 10.625C18.9154 10.638 18.8828 10.651 18.8438 10.6641C18.8047 10.6771 18.7656 10.6901 18.7266 10.7031L16.4023 11.2891L16.1875 11.9336C16.1354 12.0898 16.0768 12.2461 16.0117 12.4023C15.9596 12.5456 15.8945 12.6888 15.8164 12.832L15.5039 13.457L16.7344 15.4883C16.7995 15.6055 16.8385 15.7096 16.8516 15.8008L16.0312 16.6211C15.9792 16.6081 15.9336 16.5951 15.8945 16.582C15.8555 16.556 15.8294 16.5365 15.8164 16.5234L13.7656 15.2148L13.1211 15.5469C13.0169 15.599 12.9128 15.651 12.8086 15.7031C12.7044 15.7422 12.6003 15.7878 12.4961 15.8398C12.3919 15.8789 12.2878 15.9115 12.1836 15.9375L11.5 16.1719L10.9922 18.4961C10.9792 18.5482 10.9596 18.6003 10.9336 18.6523C10.9076 18.6914 10.8815 18.724 10.8555 18.75H9.72266C9.67057 18.6719 9.63151 18.5807 9.60547 18.4766L9.01953 16.1719L8.35547 15.957C8.31641 15.944 8.27734 15.931 8.23828 15.918C8.21224 15.9049 8.17969 15.8919 8.14062 15.8789C8.10156 15.8659 8.0625 15.8529 8.02344 15.8398C7.98438 15.8268 7.94531 15.8138 7.90625 15.8008C7.86719 15.7747 7.82812 15.7552 7.78906 15.7422C7.75 15.7292 7.71094 15.7161 7.67188 15.7031C7.63281 15.6771 7.59375 15.6576 7.55469 15.6445C7.52865 15.6315 7.49609 15.6185 7.45703 15.6055C7.41797 15.5794 7.37891 15.5534 7.33984 15.5273L6.69531 15.1953L4.64453 16.5039C4.55339 16.569 4.46875 16.6016 4.39062 16.6016L3.57031 15.8008C3.58333 15.7096 3.6224 15.612 3.6875 15.5078L4.95703 13.3789L4.66406 12.7734C4.52083 12.487 4.40365 12.2135 4.3125 11.9531L4.09766 11.2891L1.8125 10.7031C1.68229 10.6771 1.57812 10.638 1.5 10.5859V9.43359C1.51302 9.43359 1.52604 9.42708 1.53906 9.41406C1.5651 9.40104 1.59115 9.38802 1.61719 9.375C1.65625 9.34896 1.6888 9.33594 1.71484 9.33594L4.07812 8.80859L4.29297 8.125C4.37109 7.85156 4.48828 7.55208 4.64453 7.22656L4.95703 6.62109L3.6875 4.51172C3.66146 4.45964 3.63542 4.40755 3.60938 4.35547C3.58333 4.29036 3.57031 4.23828 3.57031 4.19922L4.39062 3.37891L4.60547 3.47656L6.69531 4.80469L7.33984 4.47266C7.66536 4.30339 8.00391 4.16016 8.35547 4.04297L9.01953 3.82812L9.58594 1.5625C9.61198 1.43229 9.65755 1.32812 9.72266 1.25H10.875C10.875 1.25 10.8815 1.26953 10.8945 1.30859C10.9076 1.32161 10.9141 1.33464 10.9141 1.34766C10.9271 1.36068 10.9336 1.38021 10.9336 1.40625C10.9466 1.43229 10.9596 1.45182 10.9727 1.46484L11.4805 3.82812L12.1641 4.0625C12.4896 4.16667 12.8086 4.29688 13.1211 4.45312L13.7656 4.78516L15.7773 3.49609C15.8685 3.44401 15.9531 3.41797 16.0312 3.41797L16.8516 4.21875C16.8385 4.24479 16.8255 4.28385 16.8125 4.33594C16.7995 4.38802 16.7734 4.4401 16.7344 4.49219L15.5039 6.54297L15.8164 7.16797C15.9076 7.33724 15.9857 7.5 16.0508 7.65625C16.1159 7.8125 16.168 7.96875 16.207 8.125L16.4219 8.80859L18.7461 9.33594C18.8893 9.36198 18.9805 9.40755 19.0195 9.47266L19 10.5859ZM12.9062 7.34375C12.1771 6.61458 11.2917 6.25 10.25 6.25C9.22135 6.25 8.33594 6.61458 7.59375 7.34375C6.86458 8.07292 6.5 8.95833 6.5 10C6.5 11.0417 6.86458 11.9271 7.59375 12.6562C8.33594 13.3854 9.22135 13.75 10.25 13.75C10.7708 13.75 11.2591 13.6523 11.7148 13.457C12.1836 13.2617 12.5872 12.9948 12.9258 12.6562C13.2643 12.3177 13.5312 11.9206 13.7266 11.4648C13.9219 10.9961 14.0195 10.5078 14.0195 10C14.0195 8.95833 13.6484 8.07292 12.9062 7.34375ZM12.0078 11.7773C11.526 12.2591 10.9401 12.5 10.25 12.5C9.5599 12.5 8.96745 12.2591 8.47266 11.7773C7.99089 11.2826 7.75 10.6901 7.75 10C7.75 9.3099 7.99089 8.72396 8.47266 8.24219C8.96745 7.7474 9.5599 7.5 10.25 7.5C10.9401 7.5 11.526 7.7474 12.0078 8.24219C12.5026 8.72396 12.75 9.3099 12.75 10C12.75 10.6901 12.5026 11.2826 12.0078 11.7773Z" fill="#C78E66"/>
</svg>

<svg width="21" height="20" viewBox="0 0 21 20" fill="none" xmlns="http://www.w3.org/2000/svg"><path d="M19 8.105l-1.602-.351a7.657 7.657 0 0 0-.468-1.152l.86-1.446c.116-.182.2-.37.253-.566a1.35 1.35 0 0 0 .039-.645 1.036 1.036 0 0 0-.293-.566L16.91 2.5a1.022 1.022 0 0 0-.43-.254 1.044 1.044 0 0 0-.488-.078c-.156 0-.312.026-.469.078a2.16 2.16 0 0 0-.43.195l-1.405.899-.157-.078-.156-.078a.765.765 0 0 0-.156-.059 2.333 2.333 0 0 0-.176-.078.763.763 0 0 0-.156-.059.698.698 0 0 0-.176-.058.76.76 0 0 0-.156-.059l-.352-1.64a1.65 1.65 0 0 0-.469-.84C11.487.13 11.2 0 10.875 0h-1.25c-.326 0-.599.124-.82.371a2.06 2.06 0 0 0-.43.879l-.41 1.602a6.096 6.096 0 0 0-.625.234c-.195.078-.39.17-.586.273l-1.445-.918a1.461 1.461 0 0 0-.586-.234 1.349 1.349 0 0 0-.645 0c-.221.04-.41.137-.566.293l-.899.879c-.221.286-.325.58-.312.879.026.3.13.599.312.898l.918 1.524a7.686 7.686 0 0 0-.43 1.074L1.5 8.105a1.762 1.762 0 0 0-.879.47c-.247.234-.371.52-.371.859v1.25c0 .312.124.579.371.8.247.222.54.371.879.45l1.621.39c.104.326.241.658.41.996l-.918 1.524c-.182.3-.286.599-.312.898-.013.3.09.593.312.88l.899.878c.26.234.56.352.898.352.339-.014.638-.111.899-.293l1.445-.918.234.117.235.117c.09.026.175.059.254.098.09.026.175.058.253.097a6.3 6.3 0 0 1 .254.078l.391 1.602c.078.338.228.631.45.879.22.247.488.371.8.371h1.25c.221 0 .43-.065.625-.195.195-.117.352-.274.469-.47a1.63 1.63 0 0 0 .234-.585l.352-1.621c.39-.117.768-.274 1.133-.469l1.406.899c.273.182.58.28.918.293.338 0 .638-.118.898-.352l.88-.879c.22-.286.318-.58.292-.879-.013-.3-.11-.599-.293-.898l-.86-1.446c.183-.351.333-.71.45-1.074l1.621-.39c.338-.079.631-.228.879-.45.247-.221.371-.488.371-.8v-1.25c0-.508-.267-.899-.8-1.172a1.42 1.42 0 0 0-.45-.157zm0 2.48a.225.225 0 0 1-.059.04.772.772 0 0 1-.097.04l-.117.038-2.325.586-.215.645c-.052.156-.11.312-.175.468a3.135 3.135 0 0 1-.196.43l-.312.625 1.23 2.031a.938.938 0 0 1 .118.313l-.82.82a1.842 1.842 0 0 1-.137-.039.573.573 0 0 1-.079-.059l-2.05-1.308-.645.332-.312.156c-.105.04-.209.085-.313.137a2.86 2.86 0 0 1-.312.098l-.684.234-.508 2.324a.762.762 0 0 1-.058.156.637.637 0 0 1-.079.098H9.723a.868.868 0 0 1-.118-.273l-.585-2.305-.665-.215-.117-.039a.743.743 0 0 0-.097-.04l-.118-.038-.117-.04a.49.49 0 0 0-.117-.058l-.117-.039a.498.498 0 0 0-.117-.058.759.759 0 0 0-.098-.04l-.117-.078-.645-.332-2.05 1.309a.446.446 0 0 1-.254.098l-.82-.801a.767.767 0 0 1 .116-.293l1.27-2.13-.293-.605a7.053 7.053 0 0 1-.351-.82l-.215-.664-2.285-.586a.87.87 0 0 1-.313-.117V9.434c.013 0 .026-.007.04-.02l.077-.039a.19.19 0 0 1 .098-.04l2.363-.526.215-.684c.078-.273.195-.573.352-.898l.312-.606-1.27-2.11-.078-.156A.45.45 0 0 1 3.57 4.2l.82-.82.215.098 2.09 1.328.645-.332c.325-.17.664-.313 1.015-.43l.665-.215.566-2.265a.692.692 0 0 1 .137-.313h1.152l.02.059c.013.013.02.026.02.039a.082.082 0 0 1 .019.058.225.225 0 0 0 .039.059l.507 2.363.684.235c.326.104.645.234.957.39l.645.332 2.011-1.289a.518.518 0 0 1 .254-.078l.82.8a.598.598 0 0 0-.038.118.44.44 0 0 1-.079.156l-1.23 2.051.312.625c.092.17.17.332.235.488.065.157.117.313.156.469l.215.684 2.324.527c.143.026.235.072.274.137L19 10.586zm-6.094-3.241c-.729-.73-1.614-1.094-2.656-1.094-1.029 0-1.914.365-2.656 1.094C6.864 8.073 6.5 8.958 6.5 10s.365 1.927 1.094 2.656c.742.73 1.627 1.094 2.656 1.094.52 0 1.01-.098 1.465-.293a3.707 3.707 0 0 0 1.21-.8c.34-.34.606-.736.802-1.192.195-.469.293-.957.293-1.465a3.585 3.585 0 0 0-1.114-2.656zm-.898 4.433a2.393 2.393 0 0 1-1.758.723c-.69 0-1.283-.24-1.777-.723A2.458 2.458 0 0 1 7.75 10c0-.69.24-1.276.723-1.758A2.425 2.425 0 0 1 10.25 7.5c.69 0 1.276.247 1.758.742.495.482.742 1.068.742 1.758s-.247 1.283-.742 1.777z" fill="#C78E66"/></svg>
